X: 1
T:Monks' March, Sherborne
Q:120
M:2/2
L:1/8
A:Sherborne
P:A(AB2)4A
K:A
P:A
|:E|A2A>c B2B>d|c2a>f e3d |cecA  BdBG|A2A2  A3:|
P:B
z|e>fed c2c2 |d>edc B2B2|e>fed c2c2|d>edc B4 |
A2A>c B2B>d|c2a>f e3d |cecA  BdBG|A2A2  A3||

